X: 30676
T: Ophelia's Ghost
R: reel
M: 4/4
K: Adorian
D|:EAAB c2 cd|eaag edBd|c2cA B2 BG|AcBG AGED|
EAAB c2cd|eaag edBd|c2cA B2BG|1 A2AG A2 AG:|2 A2AG A2 Bd||
|:eaag eaag|eaab c'bag|g2 ge f2 fd|egfd edBd|
eaag eaag|eaab c'bag|1 g2 ge f2fd|e2ed e2 Bd:|2 g2 ge fdBG|A2AG A4||

